remix/Business/calendar-todo-line.svg

<svg viewBox="0 0 24 24" fill="currentColor" xmlns="http://www.w3.org/2000/svg"><path d="M9 1V3H15V1H17V3H21C21.5523 3 22 3.44772 22 4V20C22 20.5523 21.5523 21 21 21H3C2.44772 21 2 20.5523 2 20V4C2 3.44772 2.44772 3 3 3H7V1H9ZM20 11H4V19H20V11ZM8 14V16H6V14H8ZM18 14V16H10V14H18ZM7 5H4V9H20V5H17V7H15V5H9V7H7V5Z"/></svg>

<svg viewBox="0 0 24 24" xmlns="http://www.w3.org/2000/svg"><path fill="none" d="M0 0h24v24H0Z"/><path d="M17 3h4v0c.55 0 1 .44 1 1v16 0c0 .55-.45 1-1 1H3v0c-.56 0-1-.45-1-1V4v0c0-.56.44-1 1-1h4V1h2v2h6V1h2v2Zm-2 2H9v2H7V5H4v4h16V5h-3v2h-2V5Zm5 6H4v8h16v-8ZM6 14h2v2H6v-2Zm4 0h8v2h-8v-2Z"/></svg>
